X:1
T: Leave My Way
C:
R:Reel
Q: 232
K:G
M:4/4
L:1/8
DE|GF GB A2 Bc|dB cA BG AF|DG GB A2 dc|BG AF G2 FD|
GF GB A2 ((3ABc) |d2 gd BG AF|DG GB AB cA|((3Bcd) AF G2 DE|
GF GB A2 Bc|dB cA BG AF|DG GB A2 dc|BG AF G2 FD|
GF GB A2 ((3ABc) |d2 gd BG AF|DG GB AB cA|((3Bcd) AF G2 G2|
gf ge f2 fd|e2 fg af df|g2 ge f2 df|eg fa g2 Bd|
g2 bg f2 af|ed ((3efg) af df|ga bg ec Ac|BG AF G2 G2|
gf ge f2 fd|e2 fg af df|g2 ge f2 df|eg fa g2 Bd|
g2 bg f2 af|ed ((3efg) af df|ga bg ec Ac|BG AF G2||
